2 Export/Icons/Rounded/Time.svg

<svg xmlns="http://www.w3.org/2000/svg" xmlns:xlink="http://www.w3.org/1999/xlink" width="24" height="24" viewBox="0 0 24 24">
  <defs>
    <path id="time-a" d="M12 2C6.5 2 2 6.5 2 12s4.5 10 10 10 10-4.5 10-10S17.5 2 12 2zm3.55 13.8l-4.08-2.51c-.3-.18-.48-.5-.48-.85V7.75a.77.77 0 0 1 .76-.75c.41 0 .75.34.75.75v4.45l3.84 2.31c.36.22.48.69.26 1.05-.22.35-.69.46-1.05.24z"/>
  </defs>
  <g fill="none" fill-rule="evenodd">
    <polygon points="0 0 24 0 24 24 0 24"/>
    <mask id="time-b" fill="#fff">
      <use xlink:href="#time-a"/>
    </mask>
    <use fill="#000" xlink:href="#time-a"/>
    <g fill="#000" mask="url(#time-b)">
      <rect width="24" height="24"/>
    </g>
  </g>
</svg>

<svg xmlns="http://www.w3.org/2000/svg" xmlns:xlink="http://www.w3.org/1999/xlink" width="24" height="24" viewBox="0 0 24 24">
  <defs>
    <path id="time-a" d="M12,2 C6.5,2 2,6.5 2,12 C2,17.5 6.5,22 12,22 C17.5,22 22,17.5 22,12 C22,6.5 17.5,2 12,2 Z M15.55,15.8 L11.47,13.29 C11.17,13.11 10.99,12.79 10.99,12.44 L10.99,7.75 C11,7.34 11.34,7 11.75,7 C12.16,7 12.5,7.34 12.5,7.75 L12.5,12.2 L16.34,14.51 C16.7,14.73 16.82,15.2 16.6,15.56 C16.38,15.91 15.91,16.02 15.55,15.8 Z"/>
  </defs>
  <g fill="none" fill-rule="evenodd">
    <polygon points="0 0 24 0 24 24 0 24"/>
    <mask id="time-b" fill="#fff">
      <use xlink:href="#time-a"/>
    </mask>
    <use fill="#000" xlink:href="#time-a"/>
    <g fill="#000" mask="url(#time-b)">
      <rect width="24" height="24"/>
    </g>
  </g>
</svg>
